X:1
T:Wohlfahrt Violin Studies - #1
T:Wohlfahrt Foundation Studies - No. 2
T:Op 45 No 8
C:Franz Wohlfahrt
%%score 1 { 2 | 3 }
L:1/8
Q:1/4=110
M:3/4
K:C
V:1 treble nm="Violin"
V:2 treble nm="Piano"
V:3 bass 
V:1
"Am""^2." E6 |"Dm/A" F6 |"Am" (E4 A2) | (c4 e2) |"Dm" (d4 e d) |"Am" (c4 d c) |"E7" B6 | e6 | %8
"Am" E6 |"Dm" F6 |"Am" (E4 A2) | (c4 d2) |"E7" e6 | d2 A2 B2 |"Am" c6- | c2 z4 |"E7" e4 B2 | %17
"Am" c2 d c B A |"E7" B4 e2 | ^g4 b2 |"C??" a4 ^f2 |"C??" ^c4 ^d2 |"E7" e6 | e6 |"Am" E6 | %25
"Dm/A" F6 |"Am" E4 A2 | c4 d2 |"E7" e2 F2 E2 | D2 C2 B,2 |"Am" A,6- | A,2 z4 |] %32
V:2
"Am" E6 |"Dm/A" F6 |"Am" ((E4 A2)) | ((c4 e2)) |"E7" ((d4 ed)) |"Am" ((c4 dc)) |"E7" B6 | e6 | %8
"Am" E6 |"Dm" F6 |"Am" ((E4 A2)) | ((c4 d2)) |"E7" e6 | d2 A2 B2 |"Am" c6- | c2 z4 |"E7" e4 B2 | %17
"Am" c2 dc BA |"E7" B4 e2 | ^g4 b2 |"C??""_What are these chords????" a4 ^f2 |"C??" ^c4 ^d2 | %22
"E7" e6 | e6 |"Am" E6 |"Dm/A" F6 |"Am" E4 A2 | c4 d2 |"E7" e2 F2 E2 | D2 C2 B,2 |"Am" A,6- | %31
 A,2 z4 |] %32
V:3
 A,,2 [C,E,]2 [C,E,]2 | A,,2 [D,F,]2 [D,F,]2 | A,,2 [C,E,]2 [C,E,]2 | A,,2 [C,E,]2 [C,E,]2 | %4
 E,,2 [^G,,B,,]2 [G,,B,,]2 | A,,2 [C,E,]2 [C,E,]2 | E,,2 [^G,,B,,]2 [G,,B,,]2 | %7
 E,2 [^G,B,]2 [G,B,]2 | A,,2 [C,E,]2 [C,E,]2 | A,,2 [D,F,]2 [D,F,]2 | A,,2 [C,E,]2 [C,E,]2 | %11
 A,,2 [C,E,]2 [C,E,]2 | E,,2 [^G,,B,,]2 [G,,B,,]2 | E,,2 [^G,,B,,]2 [G,,B,,]2 | %14
 A,,2 [C,E,]2 [C,E,]2 | A,,2 [C,E,]2 [C,E,]2 | E,,2 [^G,,B,,]2 [G,,B,,]2 | A,,2 [C,E,]2 [C,E,]2 | %18
 E,,2 [^G,,B,,]2 [G,,B,,]2 | E,,2 [^G,,B,,]2 [G,,B,,]2 | z6 | z6 | E,,2 [^G,,B,,]2 [G,,B,,]2 | %23
 E,,2 [^G,,B,,]2 [G,,B,,]2 | A,,2 [C,E,]2 [C,E,]2 | A,,2 [D,F,]2 [D,F,]2 | A,,2 [C,E,]2 [C,E,]2 | %27
 A,,2 [C,E,]2 [C,E,]2 | E,,2 [^G,,B,,]2 [G,,B,,]2 | E,,2 [^G,,B,,]2 [G,,B,,]2 | %30
 A,,2 [C,E,]2 [C,E,]2 | A,,2 [C,E,]2 [C,E,]2 |] %32

